X: 16329
T: Grumbling Old Man And Woman, The
R: reel
M: 4/4
K: Adorian
A,B,|:"A-"CA,[A,E]A, CA,[A,E]A,|"G"B,G,[G,D]G, B,G,[G,D]G,|"A-"CA,[A,E]A, CA,[A,E]A,|"G"B,A,[G,D]B, "A-"A,2A,B,|
"A-"CA,[A,E]A, CA,[A,E]A,|"G"B,G,[G,D]G, B,G,[G,D]G,|"A-"CA,[A,E]A, CA,[A,E]A,|1 "G"B,A,[G,D]B, "A-"A,2A,B,:|2 "G"B,A,G,B, "A-"A,4||
|:"A"efed ^cdef|"G"ged=c BGG2|"A"efed ^cdef|ea2b a2ef|
"A"gfed ^cdef|"G"ged=c BGGB|"F"cABG A2EF|1 "G"GECB, "A-"A,4:|2 "G"GEDC "A-"B,G,A,B,||

